findly-builder/apps/searchassist/src/assets/icons/editor/bg-resize.svg

<svg width="16" height="16" viewBox="0 0 16 16" fill="none" xmlns="http://www.w3.org/2000/svg">
<path d="M14.6162 0.5L0.5 14.6162V15.5H1.38379L15.5 1.38379V0.5H14.6162ZM15.5 4.91894L4.91894 15.5H6.68652L15.5 6.68652V4.91894ZM15.5 10.2229L10.2229 15.5H11.9905L15.5 11.9905V10.2229Z" fill="#BDC1C6"/>
</svg>

<svg width="16" height="16" fill="none" xmlns="http://www.w3.org/2000/svg"><path d="M14.616.5.5 14.616v.884h.884L15.5 1.384V.5h-.884Zm.884 4.419L4.919 15.5h1.768L15.5 6.687V4.919Zm0 5.304L10.223 15.5h1.768l3.509-3.51v-1.767Z" fill="#BDC1C6"/></svg>
